X:22
T:Lord Summers Reel. LIT.022
T:Torryburn Lasses,aka. LIT.022
M:2/4
Q:1/4=150
L:1/8
B:Wm. Litten MS, 1802
Z:Village Music Project 2017 Anne Wride
K:G
D2 |: G2 BG | B2 dd | c2 ec | egg2 |
G2 BG | Bc dB | cA GF | G2G2 :|
|:g2bg | af ed | ed ef | gd BG |
g2 bg | af ed | ed ef | g2 fa |
ba gf | gfed | ed cf | gd BG |
cd ec | Bd ge | dB cA | G2G2 :|

